icons/svg/shields/h_topo_apartment_shield.svg

<?xml version="1.0" encoding="UTF-8" standalone="no"?>
<!-- Created with Inkscape (http://www.inkscape.org/) -->

<svg
   xmlns:dc="http://purl.org/dc/elements/1.1/"
   xmlns:cc="http://creativecommons.org/ns#"
   xmlns:rdf="http://www.w3.org/1999/02/22-rdf-syntax-ns#"
   xmlns:svg="http://www.w3.org/2000/svg"
   xmlns="http://www.w3.org/2000/svg"
   xmlns:sodipodi="http://sodipodi.sourceforge.net/DTD/sodipodi-0.dtd"
   xmlns:inkscape="http://www.inkscape.org/namespaces/inkscape"
   version="1.0"
   width="16"
   height="16"
   id="svg2"
   sodipodi:version="0.32"
   inkscape:version="0.91 r13725"
   sodipodi:docname="h_topo_apartment_shield.svg"
   inkscape:output_extension="org.inkscape.output.svg.inkscape">
  <metadata
     id="metadata10">
    <rdf:RDF>
      <cc:Work
         rdf:about="">
        <dc:format>image/svg+xml</dc:format>
        <dc:type
           rdf:resource="http://purl.org/dc/dcmitype/StillImage" />
        <cc:license
           rdf:resource="http://web.resource.org/cc/PublicDomain" />
        <dc:language>en</dc:language>
        <dc:title />
      </cc:Work>
    </rdf:RDF>
  </metadata>
  <sodipodi:namedview
     inkscape:window-height="1006"
     inkscape:window-width="1920"
     inkscape:pageshadow="2"
     inkscape:pageopacity="0.0"
     guidetolerance="10.0"
     gridtolerance="10.0"
     objecttolerance="10.0"
     borderopacity="1.0"
     bordercolor="#666666"
     pagecolor="#ffffff"
     id="base"
     showgrid="false"
     inkscape:zoom="33.937499"
     inkscape:cx="-2.1522917"
     inkscape:cy="7.7495712"
     inkscape:window-x="1920"
     inkscape:window-y="0"
     inkscape:current-layer="svg2"
     inkscape:window-maximized="1"
     showguides="true"
     inkscape:guide-bbox="true" />
  <defs
     id="defs4">
    <inkscape:perspective
       sodipodi:type="inkscape:persp3d"
       inkscape:vp_x="0 : 290 : 1"
       inkscape:vp_y="0 : 1000 : 0"
       inkscape:vp_z="580 : 290 : 1"
       inkscape:persp3d-origin="290 : 193.33333 : 1"
       id="perspective12" />
    <style
       type="text/css"
       id="style6">
   
    .fil0 {fill:#EF7900}
   
  </style>
    <inkscape:perspective
       id="perspective6807"
       inkscape:persp3d-origin="29.116032 : 19.410688 : 1"
       inkscape:vp_z="58.232063 : 29.116032 : 1"
       inkscape:vp_y="0 : 1000 : 0"
       inkscape:vp_x="0 : 29.116032 : 1"
       sodipodi:type="inkscape:persp3d" />
    <inkscape:perspective
       id="perspective6954"
       inkscape:persp3d-origin="290 : 193.33333 : 1"
       inkscape:vp_z="580 : 290 : 1"
       inkscape:vp_y="0 : 1000 : 0"
       inkscape:vp_x="0 : 290 : 1"
       sodipodi:type="inkscape:persp3d" />
    <inkscape:perspective
       id="perspective2541"
       inkscape:persp3d-origin="240 : 160 : 1"
       inkscape:vp_z="480 : 240 : 1"
       inkscape:vp_y="0 : 1000 : 0"
       inkscape:vp_x="0 : 240 : 1"
       sodipodi:type="inkscape:persp3d" />
    <inkscape:perspective
       id="perspective2750"
       inkscape:persp3d-origin="215 : 143.33333 : 1"
       inkscape:vp_z="430 : 215 : 1"
       inkscape:vp_y="0 : 1000 : 0"
       inkscape:vp_x="0 : 215 : 1"
       sodipodi:type="inkscape:persp3d" />
    <inkscape:perspective
       id="perspective3730"
       inkscape:persp3d-origin="88.929146 : 101.19778 : 1"
       inkscape:vp_z="177.85829 : 151.79668 : 1"
       inkscape:vp_y="0 : 1000 : 0"
       inkscape:vp_x="0 : 151.79668 : 1"
       sodipodi:type="inkscape:persp3d" />
    <marker
       inkscape:stockid="TriangleInM"
       orient="auto"
       refY="0"
       refX="0"
       id="TriangleInM-3"
       style="overflow:visible"
       inkscape:isstock="true">
      <path
         inkscape:connector-curvature="0"
         id="path4303-6"
         d="m 5.77,0 -8.65,5 0,-10 8.65,5 z"
         style="fill:#ffffff;fill-opacity:1;fill-rule:evenodd;stroke:#ffffff;stroke-width:1pt;stroke-opacity:1"
         transform="scale(-0.4,-0.4)" />
    </marker>
    <marker
       inkscape:stockid="TriangleOutM"
       orient="auto"
       refY="0"
       refX="0"
       id="TriangleOutM-7"
       style="overflow:visible"
       inkscape:isstock="true">
      <path
         inkscape:connector-curvature="0"
         id="path4312-5"
         d="m 5.77,0 -8.65,5 0,-10 8.65,5 z"
         style="fill:#ffffff;fill-opacity:1;fill-rule:evenodd;stroke:#ffffff;stroke-width:1pt;stroke-opacity:1"
         transform="scale(0.4,0.4)" />
    </marker>
    <marker
       inkscape:stockid="TriangleInM"
       orient="auto"
       refY="0"
       refX="0"
       id="TriangleInM"
       style="overflow:visible"
       inkscape:isstock="true">
      <path
         inkscape:connector-curvature="0"
         id="path4303"
         d="m 5.77,0 -8.65,5 0,-10 8.65,5 z"
         style="fill:#ffffff;fill-opacity:1;fill-rule:evenodd;stroke:#ffffff;stroke-width:1pt;stroke-opacity:1"
         transform="scale(-0.4,-0.4)" />
    </marker>
    <marker
       inkscape:stockid="TriangleOutM"
       orient="auto"
       refY="0"
       refX="0"
       id="TriangleOutM"
       style="overflow:visible"
       inkscape:isstock="true">
      <path
         inkscape:connector-curvature="0"
         id="path4312"
         d="m 5.77,0 -8.65,5 0,-10 8.65,5 z"
         style="fill:#ffffff;fill-opacity:1;fill-rule:evenodd;stroke:#ffffff;stroke-width:1pt;stroke-opacity:1"
         transform="scale(0.4,0.4)" />
    </marker>
    <marker
       inkscape:stockid="TriangleInM"
       orient="auto"
       refY="0"
       refX="0"
       id="TriangleInM-3-3"
       style="overflow:visible"
       inkscape:isstock="true">
      <path
         inkscape:connector-curvature="0"
         id="path4303-6-6"
         d="m 5.77,0 -8.65,5 0,-10 8.65,5 z"
         style="fill:#ffffff;fill-opacity:1;fill-rule:evenodd;stroke:#ffffff;stroke-width:1pt;stroke-opacity:1"
         transform="scale(-0.4,-0.4)" />
    </marker>
    <marker
       inkscape:stockid="TriangleOutM"
       orient="auto"
       refY="0"
       refX="0"
       id="TriangleOutM-7-7"
       style="overflow:visible"
       inkscape:isstock="true">
      <path
         inkscape:connector-curvature="0"
         id="path4312-5-5"
         d="m 5.77,0 -8.65,5 0,-10 8.65,5 z"
         style="fill:#ffffff;fill-opacity:1;fill-rule:evenodd;stroke:#ffffff;stroke-width:1pt;stroke-opacity:1"
         transform="scale(0.4,0.4)" />
    </marker>
    <marker
       inkscape:stockid="TriangleInM"
       orient="auto"
       refY="0"
       refX="0"
       id="TriangleInM-3-5"
       style="overflow:visible"
       inkscape:isstock="true">
      <path
         inkscape:connector-curvature="0"
         id="path4303-6-62"
         d="m 5.77,0 -8.65,5 0,-10 8.65,5 z"
         style="fill:#ffffff;fill-opacity:1;fill-rule:evenodd;stroke:#ffffff;stroke-width:1pt;stroke-opacity:1"
         transform="scale(-0.4,-0.4)" />
    </marker>
    <marker
       inkscape:stockid="TriangleOutM"
       orient="auto"
       refY="0"
       refX="0"
       id="TriangleOutM-7-9"
       style="overflow:visible"
       inkscape:isstock="true">
      <path
         inkscape:connector-curvature="0"
         id="path4312-5-1"
         d="m 5.77,0 -8.65,5 0,-10 8.65,5 z"
         style="fill:#ffffff;fill-opacity:1;fill-rule:evenodd;stroke:#ffffff;stroke-width:1pt;stroke-opacity:1"
         transform="scale(0.4,0.4)" />
    </marker>
    <marker
       inkscape:stockid="TriangleInM"
       orient="auto"
       refY="0"
       refX="0"
       id="TriangleInM-3-0"
       style="overflow:visible"
       inkscape:isstock="true">
      <path
         inkscape:connector-curvature="0"
         id="path4303-6-9"
         d="m 5.77,0 -8.65,5 0,-10 8.65,5 z"
         style="fill:#ffffff;fill-opacity:1;fill-rule:evenodd;stroke:#ffffff;stroke-width:1pt;stroke-opacity:1"
         transform="scale(-0.4,-0.4)" />
    </marker>
    <marker
       inkscape:stockid="TriangleOutM"
       orient="auto"
       refY="0"
       refX="0"
       id="TriangleOutM-7-3"
       style="overflow:visible"
       inkscape:isstock="true">
      <path
         inkscape:connector-curvature="0"
         id="path4312-5-6"
         d="m 5.77,0 -8.65,5 0,-10 8.65,5 z"
         style="fill:#ffffff;fill-opacity:1;fill-rule:evenodd;stroke:#ffffff;stroke-width:1pt;stroke-opacity:1"
         transform="scale(0.4,0.4)" />
    </marker>
    <marker
       inkscape:stockid="TriangleInM"
       orient="auto"
       refY="0"
       refX="0"
       id="TriangleInM-0"
       style="overflow:visible"
       inkscape:isstock="true">
      <path
         inkscape:connector-curvature="0"
         id="path4303-62"
         d="m 5.77,0 -8.65,5 0,-10 8.65,5 z"
         style="fill:#ffffff;fill-opacity:1;fill-rule:evenodd;stroke:#ffffff;stroke-width:1pt;stroke-opacity:1"
         transform="scale(-0.4,-0.4)" />
    </marker>
    <marker
       inkscape:stockid="TriangleOutM"
       orient="auto"
       refY="0"
       refX="0"
       id="TriangleOutM-6"
       style="overflow:visible"
       inkscape:isstock="true">
      <path
         inkscape:connector-curvature="0"
         id="path4312-1"
         d="m 5.77,0 -8.65,5 0,-10 8.65,5 z"
         style="fill:#ffffff;fill-opacity:1;fill-rule:evenodd;stroke:#ffffff;stroke-width:1pt;stroke-opacity:1"
         transform="scale(0.4,0.4)" />
    </marker>
    <marker
       inkscape:stockid="TriangleInM"
       orient="auto"
       refY="0"
       refX="0"
       id="TriangleInM-3-0-8"
       style="overflow:visible"
       inkscape:isstock="true">
      <path
         inkscape:connector-curvature="0"
         id="path4303-6-9-7"
         d="m 5.77,0 -8.65,5 0,-10 8.65,5 z"
         style="fill:#ffffff;fill-opacity:1;fill-rule:evenodd;stroke:#ffffff;stroke-width:1pt;stroke-opacity:1"
         transform="scale(-0.4,-0.4)" />
    </marker>
    <marker
       inkscape:stockid="TriangleOutM"
       orient="auto"
       refY="0"
       refX="0"
       id="TriangleOutM-7-3-9"
       style="overflow:visible"
       inkscape:isstock="true">
      <path
         inkscape:connector-curvature="0"
         id="path4312-5-6-2"
         d="m 5.77,0 -8.65,5 0,-10 8.65,5 z"
         style="fill:#ffffff;fill-opacity:1;fill-rule:evenodd;stroke:#ffffff;stroke-width:1pt;stroke-opacity:1"
         transform="scale(0.4,0.4)" />
    </marker>
  </defs>
  <path
     style="color:#000000;font-style:normal;font-variant:normal;font-weight:normal;font-stretch:normal;font-size:medium;line-height:normal;font-family:sans-serif;text-indent:0;text-align:start;text-decoration:none;text-decoration-line:none;text-decoration-style:solid;text-decoration-color:#000000;letter-spacing:normal;word-spacing:normal;text-transform:none;direction:ltr;block-progression:tb;writing-mode:lr-tb;baseline-shift:baseline;text-anchor:start;white-space:normal;clip-rule:nonzero;display:inline;overflow:visible;visibility:visible;opacity:1;isolation:auto;mix-blend-mode:normal;color-interpolation:sRGB;color-interpolation-filters:linearRGB;solid-color:#000000;solid-opacity:1;fill:#ffffff;fill-opacity:1;fill-rule:evenodd;stroke:none;stroke-width:0.89104396;stroke-linecap:round;stroke-linejoin:miter;stroke-miterlimit:4;stroke-dasharray:none;stroke-dashoffset:0;stroke-opacity:1;color-rendering:auto;image-rendering:auto;shape-rendering:auto;text-rendering:auto;enable-background:accumulate"
     d="m 7.6078433,1.728388 c -0.0019,-6.74e-5 -0.00312,0.00173 -0.00502,0.00167 -0.2603285,-0.00796 -0.4955086,0.070576 -0.6931265,0.2143 L 5.0429402,3.3021536 C 4.7420315,3.520954 4.5786752,3.8395859 4.5791816,4.2129286 l 0,1.3192844 C 4.5793677,5.6731014 4.6175404,5.8113329 4.68968,5.9323512 4.2162722,6.0806299 3.8733574,6.3395776 3.6081348,6.7577411 3.3955648,6.5582668 3.1254881,6.414988 2.8329715,6.4162005 2.2249434,6.4192125 1.6730769,6.9734213 1.6727379,7.5814568 l -0.068643,5.3106212 0.00167,-0.02343 c -0.026704,0.62201 0.5276422,1.208657 1.1501883,1.215483 0.6225461,0.0069 1.1917079,-0.567923 1.17865,-1.19037 l 0.010045,-0.79358 8.1032182,0.05525 -0.01005,0.522356 0.0017,-0.02009 c -0.02926,0.620132 0.519443,1.208255 1.140143,1.220506 0.620701,0.01225 1.193458,-0.554498 1.188696,-1.175302 l 0.06864,-3.4488905 c 0.0079,-0.2631068 -0.129127,-0.4993225 -0.28968,-0.7065185 0.0976,-0.1336989 0.150351,-0.294876 0.150679,-0.4604102 l 0,-3.8741422 c 4.1e-4,-0.373065 -0.168079,-0.6941668 -0.463758,-0.9091007 l -1.868428,-1.3594657 0,-0.00167 C 11.777472,1.8058309 11.560912,1.7367704 11.341351,1.7300622 c -0.248637,-0.00811 -0.486309,0.061493 -0.696475,0.2143 L 9.4377644,2.8216529 8.2306527,1.9443622 l 0,-0.00167 C 8.1708678,1.8992466 8.1010919,1.9069219 8.0381175,1.8773935 7.9126068,1.7862238 7.7628566,1.7343647 7.6078433,1.728388 Z"
     id="path4380"
     inkscape:connector-curvature="0"
     sodipodi:nodetypes="ccccccccccccccccccsccccccccccccccc" />
  <path
     style="color:#000000;font-style:normal;font-variant:normal;font-weight:normal;font-stretch:normal;font-size:medium;line-height:normal;font-family:Sans;-inkscape-font-specification:Sans;text-indent:0;text-align:start;text-decoration:none;text-decoration-line:none;letter-spacing:normal;word-spacing:normal;text-transform:none;direction:ltr;block-progression:tb;writing-mode:lr-tb;baseline-shift:baseline;text-anchor:start;display:inline;overflow:visible;visibility:visible;fill:none;fill-opacity:1;fill-rule:evenodd;stroke:none;stroke-width:35.82899857;marker:none;enable-background:accumulate"
     d="m 5.2755607,6.6714821 c -0.593708,0 -1.1258558,0.4435817 -1.1258558,1.0405832 0,0.5970277 0.5321478,1.0405962 1.1258558,1.0405962 0.593708,0 1.1258558,-0.4435685 1.1258558,-1.0405962 0,-0.5970015 -0.5321478,-1.0405832 -1.1258558,-1.0405832 z m 0,0.7634501 c 0.228101,0 0.3624059,0.1465036 0.3624059,0.2771331 0,0.1306821 -0.1343049,0.2771463 -0.3624059,0.2771463 -0.2281009,0 -0.3624059,-0.1464905 -0.3624059,-0.2771463 0,-0.1306822 0.134305,-0.2771331 0.3624059,-0.2771331 z m -2.8199813,0.1472413 -0.067976,5.3195015 0.7634631,0.0092 0.020683,-1.598841 9.6757229,0.06469 -0.02595,1.317716 0.76345,0.01462 0.06864,-3.478161 -0.763462,-0.014623 -0.02727,1.396995 -9.6817041,-0.06469 0.03794,-2.957197 -0.7634631,-0.00922 z m 4.815216,1.0212573 c -0.4690593,0 -0.8593801,0.3890034 -0.8593801,0.8587083 0,0.4697182 0.3896752,0.8593939 0.8593801,0.8593939 l 4.4321546,0 c 0.469691,0 0.859367,-0.3896757 0.859367,-0.8593939 0,-0.4697049 -0.390321,-0.8587083 -0.859367,-0.8587083 l -4.4321546,0 z m -3.427548,0.7501183 c -0.2523273,0 -0.466978,0.2146639 -0.466978,0.4670043 0,0.2523406 0.2146507,0.4670046 0.466978,0.4670046 l 1.9099751,0 c 0.2523272,0 0.466991,-0.214664 0.466991,-0.4670046 0,-0.2523404 -0.2146638,-0.4670043 -0.466991,-0.4670043 l -1.9099751,0 z m 3.427548,0.013305 4.4321546,0 c 0.05994,0 0.0959,0.036096 0.0959,0.095245 0,0.059281 -0.03676,0.096036 -0.0959,0.096036 l -4.4321546,0 c -0.059281,0 -0.096036,-0.036754 -0.096036,-0.096036 0,-0.059281 0.036096,-0.095245 0.096036,-0.095245 z"
     id="path2157-7"
     inkscape:connector-curvature="0" />
</svg>

<svg width="16" height="16" viewBox="0 0 16 16" fill="none" xmlns="http://www.w3.org/2000/svg">
<path fill-rule="evenodd" clip-rule="evenodd" d="M7.60784 1.7284C7.60594 1.72833 7.60472 1.73013 7.60282 1.73007C7.3425 1.72211 7.10731 1.80064 6.9097 1.94437L5.04294 3.30216C4.74203 3.52096 4.57868 3.83959 4.57918 4.21294V5.53222C4.57937 5.67311 4.61754 5.81134 4.68968 5.93236C4.21627 6.08064 3.87336 6.33959 3.60814 6.75775C3.39557 6.55827 3.12549 6.415 2.83297 6.41621C2.22494 6.41922 1.67308 6.97343 1.67274 7.58146L1.6041 12.8921L1.60577 12.8687C1.57906 13.4907 2.13341 14.0773 2.75595 14.0841C3.3785 14.091 3.94766 13.5162 3.9346 12.8938L3.94465 12.1002L12.0479 12.1554L12.0378 12.6778L12.0395 12.6577C12.0103 13.2778 12.559 13.866 13.1797 13.8782C13.8004 13.8905 14.3731 13.3237 14.3684 12.7029L14.437 9.25402C14.4449 8.99091 14.3079 8.7547 14.1473 8.5475C14.2449 8.4138 14.2977 8.25262 14.298 8.08709V4.21295C14.2984 3.83988 14.1299 3.51878 13.8342 3.30385L11.9658 1.94438V1.94271C11.7775 1.80584 11.5609 1.73678 11.3414 1.73007C11.0927 1.72196 10.855 1.79156 10.6449 1.94437L9.43776 2.82166L8.23065 1.94437V1.9427C8.17087 1.89925 8.10109 1.90693 8.03812 1.8774C7.91261 1.78623 7.76286 1.73437 7.60784 1.7284Z" fill="white"/>
</svg>
